X: 6
T: Jackson's
R: reel
M: 4/4
L: 1/8
K: Edor
~e3d B2dB|A2GB AFGF|E2GA BAFB|ABdf eB~B2|
efed BedA|BAGB AFGF|EFGA (3Bcd ef|gfed Begf:||
efed Bdeg|fddc dfaf|gfed (3Bcd ef|dBAd BEEd|
~e3d Bdeg|fddc dfaf|b2af gfed|BdAd BEEd|
~e3d Bdeg|fddc defa|gfed (3Bcd ef|gdga bgef|
gbef gbeg|fdef d2ga|b2af gfef|gbgf efgf||


Tune 1311	Setting 29516

